Numix/16/mimetypes/application-vnd.geogebra.file.svg

<?xml version="1.0" encoding="UTF-8" standalone="no"?>
<svg
   xmlns:dc="http://purl.org/dc/elements/1.1/"
   xmlns:cc="http://creativecommons.org/ns#"
   xmlns:rdf="http://www.w3.org/1999/02/22-rdf-syntax-ns#"
   xmlns:svg="http://www.w3.org/2000/svg"
   xmlns="http://www.w3.org/2000/svg"
   xmlns:sodipodi="http://sodipodi.sourceforge.net/DTD/sodipodi-0.dtd"
   xmlns:inkscape="http://www.inkscape.org/namespaces/inkscape"
   width="16"
   height="16"
   viewBox="0 0 16 16"
   id="svg2"
   version="1.1"
   inkscape:version="0.91 r13725"
   sodipodi:docname="application-vnd.geogebra.file.svg">
  <metadata
     id="metadata16">
    <rdf:RDF>
      <cc:Work
         rdf:about="">
        <dc:format>image/svg+xml</dc:format>
        <dc:type
           rdf:resource="http://purl.org/dc/dcmitype/StillImage" />
        <dc:title />
      </cc:Work>
    </rdf:RDF>
  </metadata>
  <defs
     id="defs14">
    <clipPath
       id="clipPath-258929573">
      <g
         transform="translate(0,-1004.3622)"
         id="g17">
        <path
           inkscape:connector-curvature="0"
           d="m -24,13 c 0,1.105 -0.672,2 -1.5,2 -0.828,0 -1.5,-0.895 -1.5,-2 0,-1.105 0.672,-2 1.5,-2 0.828,0 1.5,0.895 1.5,2 z"
           transform="matrix(15.333333,0,0,11.5,414.99999,878.8622)"
           style="fill:#1890d0"
           id="path19" />
      </g>
    </clipPath>
  </defs>
  <sodipodi:namedview
     pagecolor="#ffffff"
     bordercolor="#666666"
     borderopacity="1"
     objecttolerance="10"
     gridtolerance="10"
     guidetolerance="10"
     inkscape:pageopacity="0"
     inkscape:pageshadow="2"
     inkscape:window-width="1920"
     inkscape:window-height="1013"
     id="namedview12"
     showgrid="true"
     inkscape:zoom="64"
     inkscape:cx="7.6263787"
     inkscape:cy="6.3401012"
     inkscape:window-x="0"
     inkscape:window-y="27"
     inkscape:window-maximized="1"
     inkscape:current-layer="svg2">
    <inkscape:grid
       type="xygrid"
       id="grid3018" />
  </sodipodi:namedview>
  <path
     style="fill:#6f72db;fill-opacity:1"
     d="M 2.667969,-4.46e-4 C 2.324219,-4.46e-4 2,0.3378121 2,0.6964468 L 2,15.303108 C 2,15.641365 2.34375,16 2.667969,16 l 10.664062,0 C 13.65625,16 14,15.641365 14,15.303108 l 0,-11.303554 -4,-4 z"
     id="path4-7"
     inkscape:connector-curvature="0"
     sodipodi:nodetypes="ssssssccs" />
  <path
     style="fill:#000000;fill-opacity:0.19599998"
     d="m 10.583223,3.331585 0.0154,0.019531 0.04005,-0.019531 z M 10.613,3.999554 14,7.663616 14,3.999554 z"
     id="path6-6"
     inkscape:connector-curvature="0"
     sodipodi:nodetypes="cccccccc" />
  <path
     style="fill:#ffffff;fill-opacity:0.39200003"
     d="m 10,-4.46e-4 3.996396,4 -3.383784,0 C 10.313513,3.999554 10,3.6824369 10,3.3833376 z"
     id="path8-0"
     inkscape:connector-curvature="0"
     sodipodi:nodetypes="ccssc" />
  <path
     style="color:#000000;font-style:normal;font-variant:normal;font-weight:normal;font-stretch:normal;font-size:medium;line-height:normal;font-family:sans-serif;text-indent:0;text-align:start;text-decoration:none;text-decoration-line:none;text-decoration-style:solid;text-decoration-color:#000000;letter-spacing:normal;word-spacing:normal;text-transform:none;direction:ltr;block-progression:tb;writing-mode:lr-tb;baseline-shift:baseline;text-anchor:start;white-space:normal;clip-rule:nonzero;display:inline;overflow:visible;visibility:visible;opacity:1;isolation:auto;mix-blend-mode:normal;color-interpolation:sRGB;color-interpolation-filters:linearRGB;solid-color:#000000;solid-opacity:1;fill:#ffffff;fill-opacity:1;fill-rule:nonzero;stroke:none;stroke-width:0.93102109;stroke-linecap:round;stroke-linejoin:round;stroke-miterlimit:4;stroke-dasharray:none;stroke-dashoffset:0;stroke-opacity:1;color-rendering:auto;image-rendering:auto;shape-rendering:auto;text-rendering:auto;enable-background:accumulate"
     d="M 10.5 5 C 9.8489686 5 9.2983606 5.4220156 9.0917969 6.0039062 C 8.2672109 6.0055934 7.4518885 6.268847 6.7636719 6.703125 C 6.4974015 6.2825167 6.0326197 6 5.5 6 C 4.6740866 6 4 6.6740901 4 7.5 C 4 8.1752769 4.4545177 8.7408976 5.0703125 8.9277344 C 5.0679409 8.9371233 5.0625961 8.9455877 5.0605469 8.9550781 C 4.6963952 10.641548 5.9913247 11.976049 7.8535156 12 C 7.9319896 12.001009 8.0097444 11.988403 8.0878906 11.982422 C 8.2906216 12.571263 8.8439883 13 9.5 13 C 10.325913 13 11 12.32591 11 11.5 C 11 11.258796 10.935962 11.034328 10.833984 10.832031 C 11.378257 10.339627 11.789247 9.7315144 11.9375 9.0449219 C 12.071329 8.4251266 11.961687 7.8657472 11.699219 7.390625 C 11.885318 7.1407627 12 6.8341558 12 6.5 C 12 5.6740901 11.325913 5 10.5 5 z M 10.5 5.4238281 C 11.096603 5.4238281 11.576172 5.9034035 11.576172 6.5 C 11.576172 7.0965965 11.096603 7.5761719 10.5 7.5761719 C 9.9033967 7.5761719 9.4238281 7.0965965 9.4238281 6.5 C 9.4238281 5.9034035 9.9033967 5.4238281 10.5 5.4238281 z M 5.5 6.4238281 C 6.0966033 6.4238281 6.5761719 6.9034035 6.5761719 7.5 C 6.5761719 8.0965965 6.0966033 8.5761719 5.5 8.5761719 C 4.9033967 8.5761719 4.4238281 8.0965965 4.4238281 7.5 C 4.4238281 6.9034035 4.9033967 6.4238281 5.5 6.4238281 z M 8.9511719 6.9101562 C 8.9923383 6.9106857 9.0286437 6.919054 9.0683594 6.921875 C 9.2525479 7.5419021 9.8216994 8 10.5 8 C 10.626834 8 10.747453 7.9791218 10.865234 7.9492188 C 11.032185 8.2703605 11.09263 8.6403954 11.007812 9.0332031 C 10.912035 9.4767762 10.642905 9.8851072 10.275391 10.224609 C 10.04821 10.085884 9.7846121 10 9.5 10 C 8.8182296 10 8.2475013 10.462999 8.0664062 11.087891 C 8.0604624 11.087924 8.0547912 11.08992 8.0488281 11.089844 C 6.627157 11.07156 5.7493422 10.091469 5.9921875 8.9667969 C 5.9969882 8.944564 6.0098297 8.9243074 6.015625 8.9023438 C 6.5702938 8.6968732 6.970367 8.1754628 6.9941406 7.5566406 C 7.5319987 7.1594049 8.2184536 6.9007327 8.9511719 6.9101562 z M 9.5 10.423828 C 10.096603 10.423828 10.576172 10.903404 10.576172 11.5 C 10.576172 12.096597 10.096603 12.576172 9.5 12.576172 C 8.9033967 12.576172 8.4238281 12.096597 8.4238281 11.5 C 8.4238281 10.903404 8.9033967 10.423828 9.5 10.423828 z "
     id="path3923" />
</svg>

<svg xmlns="http://www.w3.org/2000/svg" viewBox="0 0 16 16">
 <path d="m 2.668 0 c -0.344 0 -0.668 0.338 -0.668 0.697 l 0 14.607 c 0 0.338 0.344 0.697 0.668 0.697 l 10.664 0 c 0.324 0 0.668 -0.359 0.668 -0.697 l 0 -11.304 -4 -4 z" style="fill:#6f72db;fill-opacity:1"/>
 <path d="m 10.583 3.332 0.015 0.02 0.04 -0.02 z m 0.03 0.668 3.387 3.664 0 -3.664 z" style="fill:#000;fill-opacity:0.196"/>
 <path d="m 10 0 3.996 4 -3.384 0 c -0.299 0 -0.613 -0.317 -0.613 -0.616 z" style="fill:#fff;fill-opacity:0.392"/>
 <path d="m 10.5 5 c -0.651 0 -1.202 0.422 -1.408 1 c -0.825 0.002 -1.64 0.265 -2.328 0.699 c -0.266 -0.421 -0.731 -0.703 -1.264 -0.703 c -0.826 0 -1.5 0.674 -1.5 1.5 c 0 0.675 0.455 1.241 1.07 1.428 c -0.002 0.009 -0.008 0.018 -0.01 0.027 c -0.364 1.686 0.931 3.02 2.793 3.045 c 0.078 0.001 0.156 -0.012 0.234 -0.018 c 0.203 0.589 0.756 1.018 1.412 1.018 c 0.826 0 1.5 -0.674 1.5 -1.5 c 0 -0.241 -0.064 -0.466 -0.166 -0.668 c 0.544 -0.492 0.955 -1.101 1.104 -1.787 c 0.134 -0.62 0.024 -1.179 -0.238 -1.654 c 0.186 -0.25 0.301 -0.556 0.301 -0.891 c 0 -0.826 -0.674 -1.5 -1.5 -1.5 z m 0 0.424 c 0.597 0 1.076 0.48 1.076 1.076 c 0 0.597 -0.48 1.076 -1.076 1.076 c -0.597 0 -1.076 -0.48 -1.076 -1.076 c 0 -0.597 0.48 -1.076 1.076 -1.076 z m -5 1 c 0.597 0 1.076 0.48 1.076 1.076 c 0 0.597 -0.48 1.076 -1.076 1.076 c -0.597 0 -1.076 -0.48 -1.076 -1.076 c 0 -0.597 0.48 -1.076 1.076 -1.076 z m 3.451 0.486 c 0.041 0.001 0.077 0.009 0.117 0.012 c 0.184 0.62 0.753 1.078 1.432 1.078 c 0.127 0 0.247 -0.021 0.365 -0.051 c 0.167 0.321 0.227 0.691 0.143 1.084 c -0.096 0.444 -0.365 0.852 -0.732 1.191 c -0.227 -0.139 -0.491 -0.225 -0.775 -0.225 c -0.682 0 -1.252 0.463 -1.434 1.088 c -0.006 0 -0.012 0.002 -0.018 0.002 c -1.422 -0.018 -2.299 -0.998 -2.057 -2.123 c 0.005 -0.022 0.018 -0.042 0.023 -0.064 c 0.555 -0.205 0.955 -0.727 0.979 -1.346 c 0.538 -0.397 1.224 -0.656 1.957 -0.646 z m 0.549 3.514 c 0.597 0 1.076 0.48 1.076 1.076 c 0 0.597 -0.48 1.076 -1.076 1.076 c -0.597 0 -1.076 -0.48 -1.076 -1.076 c 0 -0.597 0.48 -1.076 1.076 -1.076 z" mix-blend-mode="normal" isolation="auto" white-space="normal" solid-opacity="1" solid-color="#000000" style="visibility:visible;shape-rendering:auto;color-interpolation-filters:linearRGB;fill:#fff;opacity:1;image-rendering:auto;fill-opacity:1;stroke:none;display:inline;color:#000;fill-rule:nonzero;color-rendering:auto;color-interpolation:sRGB"/>
</svg>
